_site/images/verification-page/release-icon-white.svg

<svg fill="none" height="110" viewBox="0 0 110 110" width="110" xmlns="http://www.w3.org/2000/svg" xmlns:xlink="http://www.w3.org/1999/xlink"><filter id="a" color-interpolation-filters="sRGB" filterUnits="userSpaceOnUse" height="110" width="110" x="0" y="0"><feFlood flood-opacity="0" result="BackgroundImageFix"/><feColorMatrix in="SourceAlpha" result="hardAlpha" type="matrix" values="0 0 0 0 0 0 0 0 0 0 0 0 0 0 0 0 0 0 127 0"/><feOffset dy="6"/><feGaussianBlur stdDeviation="7.5"/><feColorMatrix type="matrix" values="0 0 0 0 0.164706 0 0 0 0 0.439216 0 0 0 0 0.690196 0 0 0 0.15 0"/><feBlend in2="BackgroundImageFix" mode="normal" result="effect1_dropShadow_3524:17098"/><feBlend in="SourceGraphic" in2="effect1_dropShadow_3524:17098" mode="normal" result="shape"/></filter><g filter="url(#a)"><rect fill="#f9fcff" height="80" rx="25" width="80" x="15" y="9"/></g><path d="m50.6504 55.1793c0 .3586.1776.694.4749.8968.3601.2452.665.3709.7817.3959.5261.0771 6.5547.7213 10.5078 1.139l-.2847 2.6947c-3.0794-.3251-10.2869-1.0899-10.7044-1.1667-.7363-.1355-1.4604-.5742-1.8264-.8236-.3487-.2377-.6492-.5286-.8958-.8568l-.0125.0127-6.5029-6.3815c-.2582-.2537-.5997-.3909-.9616-.3879-.3618.0034-.7007.1474-.9544.4056-.2534.2588-.391.6001-.3878.9621.0033.3618.1475.7008.4058.9544l10.0565 9.8687c.8035.7893 1.8667 1.2235 2.9926 1.2235h18.5226v2.71h-18.5226c-1.8404 0-3.5774-.7101-4.8908-1.9991l-10.0563-9.8689c-.7751-.7607-1.2074-1.7773-1.2176-2.8632-.0104-1.0857.4031-2.1104 1.1634-2.8853.7607-.7751 1.7773-1.2074 2.8632-1.2175 1.084-.0098 2.1102.4028 2.8855 1.1633l4.3069 4.2271c.3489-.6457.8791-1.1792 1.5221-1.5319-2.6357-2.0065-4.3404-5.1761-4.3404-8.7367 0-6.0519 4.9234-10.9753 10.9753-10.9753 2.2006 0 4.2515.6516 5.9712 1.771l-1.9005 2.0132c-1.2022-.6834-2.5916-1.0743-4.0707-1.0743-4.5574 0-8.2654 3.708-8.2654 8.2654s3.708 8.2654 8.2654 8.2654c4.4867 0 8.15-3.5937 8.2626-8.0539l2.4511-2.5963c.1708.7682.2617 1.5659.2617 2.3848 0 3.3959-1.5507 6.4364-3.9809 8.4513 2.4863.3775 4.8447 1.3332 6.9171 2.8162l1.3997 1.0014v3.3324l-2.9767-2.1298c-2.2326-1.5976-4.8634-2.4597-7.6083-2.4928-.0558-.0008-.1109-.0012-.1678-.001l-9.374.0038c-.5983-.0002-1.0846.4861-1.0846 1.0838zm2.1591-14.9512-1.8673 1.9639 5.9102 5.6187 10.9813-11.6325-1.9707-1.8601-9.1143 9.6546z" fill="#00769d"/></svg>

<svg width="110" height="110" viewBox="0 0 110 110" fill="none" xmlns="http://www.w3.org/2000/svg">
<g filter="url(#filter0_d_3524:17098)">
<rect x="15" y="9" width="80" height="80" rx="25" fill="#F9FCFF"/>
</g>
<path d="M50.6504 55.1793C50.6504 55.5379 50.828 55.8733 51.1253 56.0761C51.4854 56.3213 51.7903 56.447 51.907 56.472C52.4331 56.5491 58.4617 57.1933 62.4148 57.611L62.1301 60.3057C59.0507 59.9806 51.8432 59.2158 51.4257 59.139C50.6894 59.0035 49.9653 58.5648 49.5993 58.3154C49.2506 58.0777 48.9501 57.7868 48.7035 57.4586L48.691 57.4713L42.1881 51.0898C41.9299 50.8361 41.5884 50.6989 41.2265 50.7019C40.8647 50.7053 40.5258 50.8493 40.2721 51.1075C40.0187 51.3663 39.8811 51.7076 39.8843 52.0696C39.8876 52.4314 40.0318 52.7704 40.2901 53.024L50.3466 62.8927C51.1501 63.682 52.2133 64.1162 53.3392 64.1162H71.8618V66.8262H53.3392C51.4988 66.8262 49.7618 66.1161 48.4484 64.8271L38.3921 54.9582C37.617 54.1975 37.1847 53.1809 37.1745 52.095C37.1641 51.0093 37.5776 49.9846 38.3379 49.2097C39.0986 48.4346 40.1152 48.0023 41.2011 47.9922C42.2851 47.9824 43.3113 48.395 44.0866 49.1555L48.3935 53.3826C48.7424 52.7369 49.2726 52.2034 49.9156 51.8507C47.2799 49.8442 45.5752 46.6746 45.5752 43.114C45.5752 37.0621 50.4986 32.1387 56.5505 32.1387C58.7511 32.1387 60.802 32.7903 62.5217 33.9097L60.6212 35.9229C59.419 35.2395 58.0296 34.8486 56.5505 34.8486C51.9931 34.8486 48.2851 38.5566 48.2851 43.114C48.2851 47.6714 51.9931 51.3794 56.5505 51.3794C61.0372 51.3794 64.7005 47.7857 64.8131 43.3255L67.2642 40.7292C67.435 41.4974 67.5259 42.2951 67.5259 43.114C67.5259 46.5099 65.9752 49.5504 63.545 51.5653C66.0313 51.9428 68.3897 52.8985 70.4621 54.3815L71.8618 55.3829V58.7153L68.8851 56.5855C66.6525 54.9879 64.0217 54.1258 61.2768 54.0927C61.221 54.0919 61.1659 54.0915 61.109 54.0917L51.735 54.0955C51.1367 54.0953 50.6504 54.5816 50.6504 55.1793ZM52.8095 40.2281L50.9422 42.192L56.8524 47.8107L67.8337 36.1782L65.863 34.3181L56.7487 43.9727L52.8095 40.2281Z" fill="#00769D"/>
<defs>
<filter id="filter0_d_3524:17098" x="0" y="0" width="110" height="110" filterUnits="userSpaceOnUse" color-interpolation-filters="sRGB">
<feFlood flood-opacity="0" result="BackgroundImageFix"/>
<feColorMatrix in="SourceAlpha" type="matrix" values="0 0 0 0 0 0 0 0 0 0 0 0 0 0 0 0 0 0 127 0" result="hardAlpha"/>
<feOffset dy="6"/>
<feGaussianBlur stdDeviation="7.5"/>
<feColorMatrix type="matrix" values="0 0 0 0 0.164706 0 0 0 0 0.439216 0 0 0 0 0.690196 0 0 0 0.15 0"/>
<feBlend mode="normal" in2="BackgroundImageFix" result="effect1_dropShadow_3524:17098"/>
<feBlend mode="normal" in="SourceGraphic" in2="effect1_dropShadow_3524:17098" result="shape"/>
</filter>
</defs>
</svg>
